assets/icons/dark/icon-education.svg

<svg width="40" height="40" viewBox="0 0 40 40" fill="none" xmlns="http://www.w3.org/2000/svg">
<path opacity="0.05" fill-rule="evenodd" clip-rule="evenodd" d="M1 9.96663L20 1.96663L39 9.96663L20 17.9666L1 9.96663ZM20 10.9666C21.1046 10.9666 22 10.5189 22 9.96663C22 9.41434 21.1046 8.96663 20 8.96663C18.8954 8.96663 18 9.41434 18 9.96663C18 10.5189 18.8954 10.9666 20 10.9666Z" fill="#0D86FF"/>
<path opacity="0.05" d="M7.5 23.9666V15.4666L20 20.4666L32.5 15.4666V23.9666C30.5575 28.8228 23.5 29.9666 20 29.9666C16.5 29.9666 10.6889 28.4311 7.5 23.9666Z" fill="#0D86FF"/>
<path d="M28.1613 34.6532C27.804 34.5625 27.442 34.7811 27.3534 35.1378L26.6867 37.8045C26.5967 38.1625 26.8147 38.5238 27.172 38.6132C27.226 38.6271 27.2807 38.6332 27.3341 38.6332C27.6327 38.6332 27.9041 38.4311 27.9801 38.1285L28.6467 35.4618C28.736 35.1045 28.5187 34.7425 28.1613 34.6532Z" fill="#0D86FF"/>
<path d="M20 21.2999C20.0866 21.2999 20.1734 21.2832 20.2547 21.2493L27.588 18.2146C27.928 18.0739 28.0894 17.6839 27.9487 17.3439C27.808 17.0032 27.4167 16.8432 27.0774 16.9825L20 19.9118L1.33336 12.1879V11.9665C1.33336 11.5986 1.03469 11.2999 0.666719 11.2999C0.29875 11.2999 0 11.5986 0 11.9665V12.6332C0 12.9032 0.162656 13.1465 0.412031 13.2492L19.7454 21.2492C19.8266 21.2832 19.9134 21.2999 20 21.2999Z" fill="#0D86FF"/>
<path d="M27.9307 28.1299C27.768 27.7999 27.3694 27.6639 27.038 27.8272C25.772 28.4532 23.6573 29.1812 20.6667 29.2806V23.2999C20.6667 22.9319 20.368 22.6332 20.0001 22.6332C19.6321 22.6332 19.3334 22.9319 19.3334 23.2999V29.2746C11.0554 29.0106 8.38412 23.9959 8.00006 23.1612V18.6332C8.00006 18.2653 7.70139 17.9666 7.33342 17.9666C6.96545 17.9666 6.66678 18.2653 6.66678 18.6332V23.2999C6.66678 23.3846 6.68279 23.4686 6.71412 23.5479C6.83014 23.8365 9.66748 30.6332 20.0001 30.6332C23.6115 30.6332 26.1422 29.7572 27.6288 29.0225C27.9593 28.8592 28.0947 28.4599 27.9307 28.1299Z" fill="#0D86FF"/>
<path d="M30 35.2999C29.6313 35.2999 29.3333 35.5986 29.3333 35.9665V37.9665C29.3333 38.3345 29.6313 38.6332 30 38.6332C30.3686 38.6332 30.6666 38.3345 30.6666 37.9665V35.9665C30.6666 35.5986 30.3686 35.2999 30 35.2999Z" fill="#0D86FF"/>
<path d="M39.3334 11.2999C38.9647 11.2999 38.6667 11.5986 38.6667 11.9665V12.1865L30.6667 15.4792V14.2745L39.588 10.5825C39.8373 10.4798 40.0001 10.2364 40.0001 9.96645C40.0001 9.69645 39.8374 9.45379 39.5887 9.35043L20.2547 1.35051C20.0913 1.28317 19.9087 1.28317 19.7454 1.35051L0.412031 9.35051C0.162656 9.45387 0 9.69653 0 9.96653C0 10.2365 0.162656 10.4799 0.412031 10.5825L19.7454 18.5825C19.8267 18.6165 19.9134 18.6332 20.0001 18.6332C20.0868 18.6332 20.1734 18.6166 20.2548 18.5825L27.2455 15.6899C27.5862 15.5499 27.7475 15.1599 27.6068 14.8192C27.4661 14.4792 27.0761 14.3185 26.7361 14.4585L20 17.2452L2.41 9.96653L20 2.68785L37.59 9.96653L29.936 13.1339L22.6047 10.3965C22.6434 10.2579 22.6667 10.1152 22.6667 9.96653C22.6667 8.8452 21.4954 7.96653 20.0001 7.96653C18.5048 7.96653 17.3334 8.8452 17.3334 9.96653C17.3334 11.0879 18.5048 11.9665 20.0001 11.9665C20.6674 11.9665 21.2627 11.7845 21.7254 11.4912L29.3334 14.3319V16.4679V16.4686V30.756C28.5594 31.0326 28 31.7653 28 32.6333C28 33.736 28.8973 34.6333 30 34.6333C31.1027 34.6333 32 33.736 32 32.6333C32 31.7654 31.4407 31.0327 30.6666 30.756V26.972C32.5806 25.5273 33.2666 23.6033 33.2966 23.518C33.3206 23.448 33.3333 23.374 33.3333 23.3V18.6334C33.3333 18.2654 33.0353 17.9668 32.6666 17.9668C32.298 17.9668 32 18.2654 32 18.6334V23.1768C31.8847 23.4594 31.484 24.3307 30.6666 25.1907V16.9212L39.5873 13.2499C39.8373 13.1472 40 12.9032 40 12.6332V11.9666C40 11.5986 39.702 11.2999 39.3334 11.2999ZM20 10.6332C19.186 10.6332 18.6666 10.2385 18.6666 9.96653C18.6666 9.69449 19.1859 9.29989 20 9.29989C20.8141 9.29989 21.3334 9.69457 21.3334 9.96653C21.3334 10.2386 20.814 10.6332 20 10.6332ZM30 33.2999C29.632 33.2999 29.3334 33.0006 29.3334 32.6332C29.3334 32.2659 29.632 31.9666 30 31.9666C30.368 31.9666 30.6666 32.2659 30.6666 32.6332C30.6666 33.0005 30.368 33.2999 30 33.2999Z" fill="#0D86FF"/>
<path d="M32.6467 35.1378C32.5574 34.7812 32.1946 34.5631 31.8387 34.6531C31.4814 34.7424 31.264 35.1045 31.3534 35.4618L32.02 38.1285C32.0961 38.4311 32.3674 38.6331 32.6661 38.6331C32.7194 38.6331 32.774 38.6271 32.8281 38.6131C33.1854 38.5238 33.4028 38.1624 33.3134 37.8045L32.6467 35.1378Z" fill="#0D86FF"/>
</svg>

<?xml version="1.0" encoding="utf-8"?>
<!-- Generator: Adobe Illustrator 24.2.3, SVG Export Plug-In . SVG Version: 6.00 Build 0)  -->
<svg version="1.1" id="Capa_1" xmlns="http://www.w3.org/2000/svg" xmlns:xlink="http://www.w3.org/1999/xlink" x="0px" y="0px"
	 viewBox="0 0 40 40" style="enable-background:new 0 0 40 40;" xml:space="preserve">
<style type="text/css">
	.st0{opacity:5.000000e-02;fill-rule:evenodd;clip-rule:evenodd;fill:#1DA1F2;enable-background:new    ;}
	.st1{opacity:5.000000e-02;fill:#1DA1F2;enable-background:new    ;}
	.st2{fill:#1DA1F2;}
</style>
<path class="st0" d="M1,10l19-8l19,8l-19,8L1,10z M20,11c1.1,0,2-0.4,2-1c0-0.6-0.9-1-2-1s-2,0.4-2,1C18,10.5,18.9,11,20,11z"/>
<path class="st1" d="M7.5,24v-8.5l12.5,5l12.5-5V24c-1.9,4.9-9,6-12.5,6S10.7,28.4,7.5,24z"/>
<path class="st2" d="M28.2,34.7c-0.4-0.1-0.7,0.1-0.8,0.5l-0.7,2.7c-0.1,0.4,0.1,0.7,0.5,0.8c0.1,0,0.1,0,0.2,0
	c0.3,0,0.6-0.2,0.6-0.5l0.7-2.7C28.7,35.1,28.5,34.7,28.2,34.7z"/>
<path class="st2" d="M20,21.3c0.1,0,0.2,0,0.3-0.1l7.3-3c0.3-0.1,0.5-0.5,0.4-0.9c-0.1-0.3-0.5-0.5-0.9-0.4L20,19.9L1.3,12.2V12
	c0-0.4-0.3-0.7-0.7-0.7C0.3,11.3,0,11.6,0,12v0.7c0,0.3,0.2,0.5,0.4,0.6l19.3,8C19.8,21.3,19.9,21.3,20,21.3z"/>
<path class="st2" d="M27.9,28.1c-0.2-0.3-0.6-0.5-0.9-0.3c-1.3,0.6-3.4,1.4-6.4,1.5v-6c0-0.4-0.3-0.7-0.7-0.7
	c-0.4,0-0.7,0.3-0.7,0.7v6C11.1,29,8.4,24,8,23.2v-4.5C8,18.3,7.7,18,7.3,18s-0.7,0.3-0.7,0.7v4.7c0,0.1,0,0.2,0,0.2
	c0.1,0.3,3,7.1,13.3,7.1c3.6,0,6.1-0.9,7.6-1.6C28,28.9,28.1,28.5,27.9,28.1z"/>
<path class="st2" d="M30,35.3c-0.4,0-0.7,0.3-0.7,0.7v2c0,0.4,0.3,0.7,0.7,0.7c0.4,0,0.7-0.3,0.7-0.7v-2
	C30.7,35.6,30.4,35.3,30,35.3z"/>
<path class="st2" d="M39.3,11.3c-0.4,0-0.7,0.3-0.7,0.7v0.2l-8,3.3v-1.2l8.9-3.7c0.2-0.1,0.4-0.3,0.4-0.6c0-0.3-0.2-0.5-0.4-0.6
	l-19.3-8c-0.2-0.1-0.3-0.1-0.5,0l-19.3,8C0.2,9.5,0,9.7,0,10c0,0.3,0.2,0.5,0.4,0.6l19.3,8c0.1,0,0.2,0.1,0.3,0.1
	c0.1,0,0.2,0,0.3-0.1l7-2.9c0.3-0.1,0.5-0.5,0.4-0.9c-0.1-0.3-0.5-0.5-0.9-0.4L20,17.2L2.4,10L20,2.7L37.6,10l-7.7,3.2l-7.3-2.7
	c0-0.1,0.1-0.3,0.1-0.4c0-1.1-1.2-2-2.7-2c-1.5,0-2.7,0.9-2.7,2c0,1.1,1.2,2,2.7,2c0.7,0,1.3-0.2,1.7-0.5l7.6,2.8v2.1v0v14.3
	c-0.8,0.3-1.3,1-1.3,1.9c0,1.1,0.9,2,2,2s2-0.9,2-2c0-0.9-0.6-1.6-1.3-1.9V27c1.9-1.4,2.6-3.4,2.6-3.5c0-0.1,0-0.1,0-0.2v-4.7
	c0-0.4-0.3-0.7-0.7-0.7c-0.4,0-0.7,0.3-0.7,0.7v4.5c-0.1,0.3-0.5,1.2-1.3,2v-8.3l8.9-3.7c0.2-0.1,0.4-0.3,0.4-0.6V12
	C40,11.6,39.7,11.3,39.3,11.3z M20,10.6c-0.8,0-1.3-0.4-1.3-0.7c0-0.3,0.5-0.7,1.3-0.7s1.3,0.4,1.3,0.7C21.3,10.2,20.8,10.6,20,10.6
	z M30,33.3c-0.4,0-0.7-0.3-0.7-0.7c0-0.4,0.3-0.7,0.7-0.7s0.7,0.3,0.7,0.7C30.7,33,30.4,33.3,30,33.3z"/>
<path class="st2" d="M32.6,35.1c-0.1-0.4-0.5-0.6-0.8-0.5c-0.4,0.1-0.6,0.5-0.5,0.8l0.7,2.7c0.1,0.3,0.3,0.5,0.6,0.5
	c0.1,0,0.1,0,0.2,0c0.4-0.1,0.6-0.5,0.5-0.8L32.6,35.1z"/>
</svg>
